X: 622
T: Green Willis
B: jims roots
M:C|
R: reel
Q: 1/4=100
K:D
V:1 
(3ABc| "D"dAdA dAfe| dAdA d2gf| "A"edcB ABcd| edcB A2 (3ABc|
       "D"dAdA dAfe| dAdA d2gf| "A"edcA BAcA| "D"d2de d2 :|
|:fg | "D"agfg agfe| d2dc d2ef| "G"gfga bagf| "A"edcB A2fg|
     "D"agfg agfe| dAdA "G"gegf| "A"edcA BAcA| "D"d2de d2 :|
% abcbook-tune_id 6298c25dc357aaba089d407e


% abcbook-boost 0
% abcbook-tablature 
% abcbook-transpose 
% abcbook-lastupdated 1654178398456
% abcbook-soundfonts 
% abcbook-repeats 1


